src/travel-places/sky-weather/26C8.svg

<svg id="emoji" viewBox="0 0 72 72" xmlns="http://www.w3.org/2000/svg">
  <g id="grid">
    <path fill="#b3b3b3" d="M68,4V68H4V4H68m4-4H0V72H72V0Z"/>
    <path fill="none" stroke="#00a5ff" stroke-miterlimit="10" stroke-width="0.1" d="M12.923,10.9583H59.0769A1.9231,1.9231,0,0,1,61,12.8814V59.0352a1.9231,1.9231,0,0,1-1.9231,1.9231H12.9231A1.9231,1.9231,0,0,1,11,59.0352V12.8813A1.923,1.923,0,0,1,12.923,10.9583Z"/>
    <rect x="16" y="4" rx="2.2537" width="40" height="64" fill="none" stroke="#00a5ff" stroke-miterlimit="10" stroke-width="0.1"/>
    <rect x="16" y="4" rx="2.2537" width="40" height="64" transform="translate(72) rotate(90)" fill="none" stroke="#00a5ff" stroke-miterlimit="10" stroke-width="0.1"/>
    <circle cx="36" cy="36" r="29" fill="none" stroke="#00a5ff" stroke-miterlimit="10" stroke-width="0.1"/>
  </g>
  <g id="color">
    <path fill="#92D3F5" stroke="none" d="M24.0259,59.2555c-0.7516,1.1632-2.1343,1.6031-3.0902,0.9854c-0.9559-0.6177-1.1216-2.0613-0.37-3.2245 c0,0,0.8943-1.4257,4.0066-3.0386c0,0,0.6168-0.3534,0.5724,0.3205C24.9533,57.7984,24.0259,59.2555,24.0259,59.2555"/>
    <path fill="#61B2E4" stroke="none" d="M24.4852,54.1199c0.5441,1.6504-0.7227,4.9495-0.7227,4.9495 c-0.9587,1.3692-2.1337,1.5027-3.1418,0.7967C20.6206,59.8662,23.3402,58.895,24.4852,54.1199"/>
    <path fill="#92D3F5" stroke="none" d="M17.7257,51.6844c-0.7516,1.1632-2.1343,1.6031-3.0902,0.9854c-0.9559-0.6177-1.1216-2.0613-0.37-3.2245 c0,0,0.8943-1.4257,4.0066-3.0386c0,0,0.6168-0.3534,0.5724,0.3205C18.6531,50.2273,17.7257,51.6844,17.7257,51.6844"/>
    <path fill="#61B2E4" stroke="none" d="M18.185,46.5488c0.5441,1.6504-0.7227,4.9495-0.7227,4.9495 c-0.9587,1.3692-2.1337,1.5027-3.1418,0.7967C14.3204,52.295,17.04,51.3239,18.185,46.5488"/>
    <path fill="#92D3F5" stroke="none" d="M56.4282,51.6844c-0.7516,1.1632-2.1343,1.6031-3.0902,0.9854c-0.9559-0.6177-1.1216-2.0613-0.37-3.2245 c0,0,0.8943-1.4257,4.0066-3.0386c0,0,0.6168-0.3534,0.5724,0.3205C57.3556,50.2273,56.4282,51.6844,56.4282,51.6844"/>
    <path fill="#61B2E4" stroke="none" d="M56.8875,46.5488c0.5441,1.6504-0.7227,4.9495-0.7227,4.9495 c-0.9587,1.3692-2.1337,1.5027-3.1418,0.7967C53.0229,52.295,55.7425,51.3239,56.8875,46.5488"/>
    <path fill="#92D3F5" stroke="none" d="M48.0021,59.2555c-0.7516,1.1632-2.1343,1.6031-3.0902,0.9854c-0.9559-0.6177-1.1216-2.0613-0.37-3.2245 c0,0,0.8943-1.4257,4.0066-3.0386c0,0,0.6168-0.3534,0.5724,0.3205C48.9294,57.7984,48.0021,59.2555,48.0021,59.2555"/>
    <path fill="#61B2E4" stroke="none" d="M48.4614,54.1199c0.5441,1.6504-0.7227,4.9495-0.7227,4.9495 c-0.9587,1.3692-2.1337,1.5027-3.1418,0.7967C44.5968,59.8662,47.3163,58.895,48.4614,54.1199"/>
    <path fill="#d0cfce" stroke="none" d="M19.2787,22.3066c-0.031,0.3535-0.3174,0.6396-0.6721,0.6775C14.307,23.4447,11,27.6783,11,32.8315 c0,5.4608,3.7871,9.8877,8.4588,9.8877h32.248C56.8393,42.7192,61,38.0409,61,32.27c0-5.5305-3.8212-10.0575-8.6569-10.4251 c-0.37-0.0281-0.67-0.2871-0.7406-0.6494c-1.0803-5.5472-6.0636-9.7159-11.9553-9.7159c-3.829,0-7.2399,1.7335-9.4549,4.4912 c-0.2164,0.2695-0.5797,0.3929-0.8992,0.2589c-0.8523-0.3575-1.7525-0.5304-2.7597-0.5304 C22.7272,15.6993,19.6031,18.604,19.2787,22.3066z"/>
    <path fill="#FCEA2B" stroke="none" d="M31.0827,42.7192l-3.7893,6.7541c-0.2732,0.2863-0.0517,0.7346,0.3629,0.7346h8.4435l-5.845,9.2144 c-0.3172,0.5,0.3444,1.0389,0.7699,0.6271l13.669-13.2268c0.2916-0.2821,0.0737-0.7475-0.35-0.7475h-8.1735l1.5388-3.3558H31.0827 z"/>
  </g>
  <g id="hair"/>
  <g id="skin"/>
  <g id="skin-shadow"/>
  <g id="line">
    <path fill="none" stroke="#000000" stroke-linecap="round" stroke-linejoin="round" stroke-miterlimit="10" stroke-width="1.8" d="M24.0259,59.2555c-0.7516,1.1632-2.1343,1.6031-3.0902,0.9854c-0.9559-0.6177-1.1216-2.0613-0.37-3.2245 c0,0,0.8761-1.5078,4.0066-3.0386c0,0,0.6168-0.3534,0.5724,0.3205C24.9533,57.7984,24.0259,59.2555,24.0259,59.2555"/>
    <path fill="none" stroke="#000000" stroke-linecap="round" stroke-linejoin="round" stroke-miterlimit="10" stroke-width="1.8" d="M17.7257,51.6844c-0.7516,1.1632-2.1343,1.6031-3.0902,0.9854c-0.9559-0.6177-1.1216-2.0613-0.37-3.2245 c0,0,0.8761-1.5078,4.0066-3.0386c0,0,0.6168-0.3534,0.5724,0.3205C18.6531,50.2273,17.7257,51.6844,17.7257,51.6844"/>
    <path fill="none" stroke="#000000" stroke-linecap="round" stroke-linejoin="round" stroke-miterlimit="10" stroke-width="1.8" d="M56.4282,51.6844c-0.7516,1.1632-2.1343,1.6031-3.0902,0.9854c-0.9559-0.6177-1.1216-2.0613-0.37-3.2245 c0,0,0.8761-1.5078,4.0066-3.0386c0,0,0.6168-0.3534,0.5724,0.3205C57.3556,50.2273,56.4282,51.6844,56.4282,51.6844"/>
    <path fill="none" stroke="#000000" stroke-linecap="round" stroke-linejoin="round" stroke-miterlimit="10" stroke-width="1.8" d="M48.0021,59.2555c-0.7516,1.1632-2.1343,1.6031-3.0902,0.9854c-0.9559-0.6177-1.1216-2.0613-0.37-3.2245 c0,0,0.8761-1.5078,4.0066-3.0386c0,0,0.6168-0.3534,0.5724,0.3205C48.9294,57.7984,48.0021,59.2555,48.0021,59.2555"/>
    <path fill="none" stroke="#000000" stroke-linecap="round" stroke-linejoin="round" stroke-miterlimit="10" stroke-width="2" d="M19.2787,22.3066c-0.031,0.3535-0.3174,0.6396-0.6721,0.6775C14.307,23.4447,11,27.6783,11,32.8315 c0,5.4608,3.7871,9.8877,8.4588,9.8877h32.248C56.8393,42.7192,61,38.0409,61,32.27c0-5.5305-3.8212-10.0575-8.6569-10.4251 c-0.37-0.0281-0.67-0.2871-0.7406-0.6494c-1.0803-5.5472-6.0636-9.7159-11.9553-9.7159c-3.829,0-7.2399,1.7335-9.4549,4.4912 c-0.2164,0.2695-0.5797,0.3929-0.8992,0.2589c-0.8523-0.3575-1.7525-0.5304-2.7597-0.5304 C22.7272,15.6993,19.6031,18.604,19.2787,22.3066z"/>
    <path fill="none" stroke="#000000" stroke-linecap="round" stroke-linejoin="round" stroke-miterlimit="10" stroke-width="1.8" d="M31.0827,42.7192l-3.7893,6.7541c-0.2732,0.2863-0.0517,0.7346,0.3629,0.7346h8.4435l-5.845,9.2144 c-0.3172,0.5,0.3444,1.0389,0.7699,0.6271l13.669-13.2268c0.2916-0.2821,0.0737-0.7475-0.35-0.7475h-8.1735l1.5388-3.3558H31.0827 z"/>
  </g>
</svg>

<svg viewBox="0 0 72 72" xmlns="http://www.w3.org/2000/svg"><path fill="#b3b3b3" d="M68 4v64H4V4h64m4-4H0v72h72V0z"/><path fill="none" stroke="#00a5ff" stroke-miterlimit="10" stroke-width=".1" d="M12.923 10.958h46.154A1.923 1.923 0 0161 12.881v46.154a1.923 1.923 0 01-1.923 1.923H12.923A1.923 1.923 0 0111 59.035V12.881a1.923 1.923 0 011.923-1.923z"/><rect x="16" y="4" rx="2.254" width="40" height="64" fill="none" stroke="#00a5ff" stroke-miterlimit="10" stroke-width=".1"/><rect x="16" y="4" rx="2.254" width="40" height="64" transform="rotate(90 36 36)" fill="none" stroke="#00a5ff" stroke-miterlimit="10" stroke-width=".1"/><circle cx="36" cy="36" r="29" fill="none" stroke="#00a5ff" stroke-miterlimit="10" stroke-width=".1"/><g stroke-linecap="round" stroke-miterlimit="10" stroke-width="6" stroke="#fff" fill="none" stroke-linejoin="round"><path d="M24.026 59.255c-.752 1.164-2.134 1.604-3.09.986-.956-.618-1.122-2.061-.37-3.225 0 0 .876-1.507 4.006-3.038 0 0 .617-.354.573.32-.192 3.5-1.12 4.957-1.12 4.957m-6.299-7.571c-.752 1.164-2.135 1.603-3.09.986-.956-.618-1.122-2.062-.37-3.225 0 0 .876-1.508 4.006-3.038 0 0 .617-.354.573.32-.192 3.5-1.12 4.957-1.12 4.957m38.703 0c-.751 1.164-2.134 1.603-3.09.986-.956-.618-1.122-2.062-.37-3.225 0 0 .876-1.508 4.007-3.038 0 0 .616-.354.572.32-.191 3.5-1.119 4.957-1.119 4.957m-8.426 7.571c-.752 1.164-2.134 1.604-3.09.986-.956-.618-1.122-2.061-.37-3.225 0 0 .876-1.507 4.006-3.038 0 0 .617-.354.573.32-.192 3.5-1.119 4.957-1.119 4.957M19.279 22.307a.756.756 0 01-.672.677c-4.3.46-7.607 4.694-7.607 9.847 0 5.461 3.787 9.888 8.459 9.888h32.248C56.839 42.72 61 38.041 61 32.27c0-5.53-3.821-10.057-8.657-10.425a.805.805 0 01-.74-.65c-1.08-5.547-6.064-9.715-11.956-9.715-3.829 0-7.24 1.733-9.455 4.49-.216.27-.58.394-.899.26-.852-.358-1.752-.53-2.76-.53-3.806 0-6.93 2.904-7.254 6.607z"/><path d="M31.083 42.72l-3.79 6.753c-.273.287-.051.735.363.735H36.1l-5.845 9.214c-.317.5.344 1.04.77.627l13.669-13.226c.291-.283.073-.748-.35-.748H36.17l1.539-3.356h-6.626z"/></g><path fill="#92D3F5" d="M24.026 59.255c-.752 1.164-2.134 1.604-3.09.986-.956-.618-1.122-2.061-.37-3.225 0 0 .894-1.425 4.006-3.038 0 0 .617-.354.573.32-.192 3.5-1.12 4.957-1.12 4.957"/><path fill="#61B2E4" d="M24.485 54.12c.544 1.65-.723 4.95-.723 4.95-.958 1.369-2.133 1.502-3.141.796 0 0 2.72-.971 3.864-5.746"/><path fill="#92D3F5" d="M17.726 51.684c-.752 1.164-2.135 1.603-3.09.986-.956-.618-1.122-2.062-.37-3.225 0 0 .894-1.425 4.006-3.038 0 0 .617-.354.573.32-.192 3.5-1.12 4.957-1.12 4.957"/><path fill="#61B2E4" d="M18.185 46.549c.544 1.65-.723 4.95-.723 4.95-.958 1.368-2.133 1.502-3.142.796 0 0 2.72-.971 3.865-5.746"/><path fill="#92D3F5" d="M56.428 51.684c-.751 1.164-2.134 1.603-3.09.986-.956-.618-1.122-2.062-.37-3.225 0 0 .894-1.425 4.007-3.038 0 0 .616-.354.572.32-.191 3.5-1.119 4.957-1.119 4.957"/><path fill="#61B2E4" d="M56.888 46.549c.544 1.65-.723 4.95-.723 4.95-.959 1.368-2.134 1.502-3.142.796 0 0 2.72-.971 3.864-5.746"/><path fill="#92D3F5" d="M48.002 59.255c-.752 1.164-2.134 1.604-3.09.986-.956-.618-1.122-2.061-.37-3.225 0 0 .894-1.425 4.006-3.038 0 0 .617-.354.573.32-.192 3.5-1.119 4.957-1.119 4.957"/><path fill="#61B2E4" d="M48.461 54.12c.544 1.65-.722 4.95-.722 4.95-.959 1.369-2.134 1.502-3.142.796 0 0 2.72-.971 3.864-5.746"/><path fill="#d0cfce" d="M19.279 22.307a.756.756 0 01-.672.677c-4.3.46-7.607 4.694-7.607 9.847 0 5.461 3.787 9.888 8.459 9.888h32.248C56.839 42.72 61 38.041 61 32.27c0-5.53-3.821-10.057-8.657-10.425a.805.805 0 01-.74-.65c-1.08-5.547-6.064-9.715-11.956-9.715-3.829 0-7.24 1.733-9.455 4.49-.216.27-.58.394-.899.26-.852-.358-1.752-.53-2.76-.53-3.806 0-6.93 2.904-7.254 6.607z"/><path fill="#FCEA2B" d="M31.083 42.72l-3.79 6.753c-.273.287-.051.735.363.735H36.1l-5.845 9.214c-.317.5.344 1.04.77.627l13.669-13.226c.291-.283.073-.748-.35-.748H36.17l1.539-3.356h-6.626z"/><g fill="none" stroke="#000" stroke-linecap="round" stroke-linejoin="round" stroke-miterlimit="10"><path stroke-width="1.8" d="M24.026 59.255c-.752 1.164-2.134 1.604-3.09.986-.956-.618-1.122-2.061-.37-3.225 0 0 .876-1.507 4.006-3.038 0 0 .617-.354.573.32-.192 3.5-1.12 4.957-1.12 4.957m-6.299-7.571c-.752 1.164-2.135 1.603-3.09.986-.956-.618-1.122-2.062-.37-3.225 0 0 .876-1.508 4.006-3.038 0 0 .617-.354.573.32-.192 3.5-1.12 4.957-1.12 4.957m38.703 0c-.751 1.164-2.134 1.603-3.09.986-.956-.618-1.122-2.062-.37-3.225 0 0 .876-1.508 4.007-3.038 0 0 .616-.354.572.32-.191 3.5-1.119 4.957-1.119 4.957m-8.426 7.571c-.752 1.164-2.134 1.604-3.09.986-.956-.618-1.122-2.061-.37-3.225 0 0 .876-1.507 4.006-3.038 0 0 .617-.354.573.32-.192 3.5-1.119 4.957-1.119 4.957"/><path stroke-width="2" d="M19.279 22.307a.756.756 0 01-.672.677c-4.3.46-7.607 4.694-7.607 9.847 0 5.461 3.787 9.888 8.459 9.888h32.248C56.839 42.72 61 38.041 61 32.27c0-5.53-3.821-10.057-8.657-10.425a.805.805 0 01-.74-.65c-1.08-5.547-6.064-9.715-11.956-9.715-3.829 0-7.24 1.733-9.455 4.49-.216.27-.58.394-.899.26-.852-.358-1.752-.53-2.76-.53-3.806 0-6.93 2.904-7.254 6.607z"/><path stroke-width="1.8" d="M31.083 42.72l-3.79 6.753c-.273.287-.051.735.363.735H36.1l-5.845 9.214c-.317.5.344 1.04.77.627l13.669-13.226c.291-.283.073-.748-.35-.748H36.17l1.539-3.356h-6.626z"/></g></svg>
